icons/svg/save.svg

<svg width="24" height="24" viewBox="0 0 24 24" fill="none" xmlns="http://www.w3.org/2000/svg">
<path d="M7.55769 3.75H7.25C5.317 3.75 3.75 5.317 3.75 7.25V17.0769C3.75 18.8294 5.17063 20.25 6.92308 20.25V20.25M7.55769 3.75V6.19231C7.55769 7.29688 8.45312 8.19231 9.55769 8.19231H11.9038C13.0084 8.19231 13.9038 7.29688 13.9038 6.19231V3.75M7.55769 3.75H13.9038M13.9038 3.75H13.9304C14.7261 3.75 15.4891 4.06607 16.0518 4.62868L19.2249 7.8018C19.8813 8.45817 20.25 9.34841 20.25 10.2767V17.0769C20.25 18.8294 18.8294 20.25 17.0769 20.25V20.25M6.92308 20.25V15C6.92308 13.3431 8.26622 12 9.92308 12H14.0769C15.7338 12 17.0769 13.3431 17.0769 15V20.25M6.92308 20.25H17.0769" stroke="currentColor" stroke-width="1.5" stroke-linecap="round" stroke-linejoin="round"/>
</svg>

<svg xmlns="http://www.w3.org/2000/svg" width="24" height="24" fill="none" viewBox="0 0 24 24"><path stroke="currentColor" stroke-linecap="round" stroke-linejoin="round" stroke-width="1.5" d="M7.558 3.75H7.25a3.5 3.5 0 0 0-3.5 3.5v9.827a3.173 3.173 0 0 0 3.173 3.173v0m.635-16.5v2.442a2 2 0 0 0 2 2h2.346a2 2 0 0 0 2-2V3.75m-6.346 0h6.346m0 0h.026a3 3 0 0 1 2.122.879l3.173 3.173a3.5 3.5 0 0 1 1.025 2.475v6.8a3.173 3.173 0 0 1-3.173 3.173v0m-10.154 0V15a3 3 0 0 1 3-3h4.154a3 3 0 0 1 3 3v5.25m-10.154 0h10.154"/></svg>
